X: 2
T: The Enchanted Lady
M: 4/4
L: 1/8
K: Dmaj
"D"A2 AG FAdB|AGFD "A"EA A2|"D"A2 AG FAdB|"G"ABde "Bm"fd d2:|]
"D"f2 df "Bm"efdf|"D"f2 df "Em"edBd|f2 df "A"efdB|"G"ABAG "Bm"FD D2|
"D"f2 df efdf|f2 df "A"edBA|"D"A2 AB "Bm"dfbf|"G"afeg "D"fd d2|]




